X:345
T:Redford Cottage 
C:Joe Buchanan's Scottish Tome - Page 139.0
I:139 0
C:W. Sinclair
R:March
Z:Carl Allison
L:1/8
M:6/8
K:D
e | f2 A A2 A | B<Gd A>ef | g2 e f2 d | e>fd c>BA |
f2 A A2 A | B<GB g3 | B>ed c>Bc | d3 d2 :|
g | a2 f g2 e | f<ag f>ed | g2 e f2 d | e>fd c>BA |
a2 f g2 e | f<ag f<ed | B>ed c>Bc | d3 d2 g |
a2 f g2 e | f<ag f<ed | g2 e f2 d | e>fd c>BA |
f2 A A2 A | B<GB g3 | B>ed c>Bc | d3 d2 |]
e | f>ef A2 A | B<dc B<GB | A2 A f>ed | e>fd c>BA |
f>ef A2 A | B<GB g3 | B>ed c>Bc | d3 d2 :|
g | a2 a f>ed | f<ag f<ed | g>ag f>ed | e>fd c>BA |
a2 a f>ed | f<ag f<ed | B>ed c>Bc | d3 d2 g |
a2 a f>ed | f<ag f<ed | B>ed f>ed | e>fd c>BA |
f2 A A2 A | B<GB g3 | B>ed c>Bc | d3 d2 |]

